X:6301
T:Glace Bay
R:pipe reel
C:Paul S. Cranford
O:20th Century Cape Breton
D:The Lighthouse, Cranford Publications
B:The Lighthouse Collection, ISBN 0-9691181-5-5
N:http://www.cranfordpub.com
Q:300
L:1/8
M:C|
K:A
f|e2 cB A2 AB|c2 cB ceef|e2 cB A2 Ac|B2 Bc dBB:|!
g|a2 ed c2 AB|c cB ceeg|a2 ed c2 Ac|B2 Bc dBBg|!
a2 ed c2 AB|c cB ceeg|aefd eAcA|B2 Bc dBB|]!


